X:71
T:Franklin is fled away
Z:Jack Campin, http://www.campin.me.uk/
F:Jack Campin's Nine-Note Tunebook
% last edit 03-02-2013
S:Simpson, The British Broadside Ballad and Its Music
M:6/4
L:1/4
Q:3/4=60
K:F %Transposed from G
FFF E>DC|FFG            A3  |BBB A>B G   |GG>^F G3 |
ccB A>GF|G/A/ B/A/ G/F/ E>DC|ccd c>B A/G/|AG>F  F3|]

